<?xml version="1.0" encoding="UTF-8"?>
<map version="1.10" tiledversion="1.12.1" orientation="orthogonal" renderorder="right-down" width="90" height="20" tilewidth="18" tileheight="18" infinite="0" nextlayerid="4" nextobjectid="41">
 <editorsettings>
  <export target="game3bmap.tmj" format="json"/>
 </editorsettings>
 <tileset firstgid="1" name="industrial_tiles" tilewidth="18" tileheight="18" tilecount="112" columns="16">
  <image source="../Downloads/kenney_pixel-platformer-industrial-expansion/Tilemap/industrial_tiles.png" width="288" height="126"/>
  <tile id="0">
   <properties>
    <property name="collides" type="bool" value="true"/>
   </properties>
  </tile>
  <tile id="1">
   <properties>
    <property name="collides" type="bool" value="true"/>
   </properties>
  </tile>
  <tile id="2">
   <properties>
    <property name="collides" type="bool" value="true"/>
   </properties>
  </tile>
  <tile id="3">
   <properties>
    <property name="collides" type="bool" value="true"/>
   </properties>
  </tile>
  <tile id="4">
   <properties>
    <property name="collides" type="bool" value="true"/>
   </properties>
  </tile>
  <tile id="5">
   <properties>
    <property name="collides" type="bool" value="true"/>
   </properties>
  </tile>
  <tile id="6">
   <properties>
    <property name="collides" type="bool" value="true"/>
   </properties>
  </tile>
  <tile id="9">
   <properties>
    <property name="collides" type="bool" value="true"/>
   </properties>
  </tile>
  <tile id="13">
   <properties>
    <property name="death" type="bool" value="true"/>
   </properties>
  </tile>
  <tile id="14">
   <properties>
    <property name="death" type="bool" value="true"/>
   </properties>
  </tile>
  <tile id="15">
   <properties>
    <property name="death" type="bool" value="true"/>
   </properties>
  </tile>
  <tile id="16">
   <properties>
    <property name="collides" type="bool" value="true"/>
   </properties>
  </tile>
  <tile id="17">
   <properties>
    <property name="collides" type="bool" value="true"/>
   </properties>
  </tile>
  <tile id="18">
   <properties>
    <property name="collides" type="bool" value="true"/>
   </properties>
  </tile>
  <tile id="19">
   <properties>
    <property name="collides" type="bool" value="true"/>
   </properties>
  </tile>
  <tile id="20">
   <properties>
    <property name="collides" type="bool" value="true"/>
   </properties>
  </tile>
  <tile id="21">
   <properties>
    <property name="collides" type="bool" value="true"/>
   </properties>
  </tile>
  <tile id="22">
   <properties>
    <property name="collides" type="bool" value="true"/>
   </properties>
  </tile>
  <tile id="29">
   <properties>
    <property name="death" type="bool" value="true"/>
   </properties>
  </tile>
  <tile id="30">
   <properties>
    <property name="death" type="bool" value="true"/>
   </properties>
  </tile>
  <tile id="31">
   <properties>
    <property name="death" type="bool" value="true"/>
   </properties>
  </tile>
  <tile id="32">
   <properties>
    <property name="collides" type="bool" value="true"/>
   </properties>
  </tile>
  <tile id="33">
   <properties>
    <property name="collides" type="bool" value="true"/>
   </properties>
  </tile>
  <tile id="34">
   <properties>
    <property name="collides" type="bool" value="true"/>
   </properties>
  </tile>
  <tile id="35">
   <properties>
    <property name="collides" type="bool" value="true"/>
   </properties>
  </tile>
  <tile id="38">
   <properties>
    <property name="collides" type="bool" value="true"/>
   </properties>
  </tile>
  <tile id="45">
   <properties>
    <property name="death" type="bool" value="true"/>
   </properties>
  </tile>
  <tile id="46">
   <properties>
    <property name="death" type="bool" value="true"/>
   </properties>
  </tile>
  <tile id="47">
   <properties>
    <property name="death" type="bool" value="true"/>
   </properties>
  </tile>
  <tile id="48">
   <properties>
    <property name="collides" type="bool" value="true"/>
   </properties>
  </tile>
  <tile id="49">
   <properties>
    <property name="collides" type="bool" value="true"/>
   </properties>
  </tile>
  <tile id="50">
   <properties>
    <property name="collides" type="bool" value="true"/>
   </properties>
  </tile>
  <tile id="51">
   <properties>
    <property name="collides" type="bool" value="true"/>
   </properties>
  </tile>
  <tile id="59">
   <properties>
    <property name="collides" type="bool" value="false"/>
   </properties>
  </tile>
  <tile id="60">
   <properties>
    <property name="collides" type="bool" value="true"/>
   </properties>
  </tile>
  <tile id="61">
   <properties>
    <property name="collides" type="bool" value="true"/>
   </properties>
  </tile>
  <tile id="62">
   <properties>
    <property name="collides" type="bool" value="true"/>
   </properties>
  </tile>
  <tile id="63">
   <properties>
    <property name="collides" type="bool" value="true"/>
   </properties>
  </tile>
  <tile id="66">
   <properties>
    <property name="collides" type="bool" value="true"/>
   </properties>
  </tile>
  <tile id="67">
   <properties>
    <property name="collides" type="bool" value="true"/>
   </properties>
  </tile>
  <tile id="75">
   <properties>
    <property name="collides" type="bool" value="false"/>
   </properties>
  </tile>
  <tile id="76">
   <properties>
    <property name="collides" type="bool" value="true"/>
   </properties>
  </tile>
  <tile id="77">
   <properties>
    <property name="collides" type="bool" value="true"/>
   </properties>
  </tile>
  <tile id="84">
   <properties>
    <property name="collides" type="bool" value="true"/>
   </properties>
  </tile>
  <tile id="85">
   <properties>
    <property name="collides" type="bool" value="true"/>
   </properties>
  </tile>
  <tile id="86">
   <properties>
    <property name="collides" type="bool" value="true"/>
   </properties>
  </tile>
  <tile id="87">
   <properties>
    <property name="collides" type="bool" value="true"/>
   </properties>
  </tile>
  <tile id="88">
   <properties>
    <property name="collides" type="bool" value="true"/>
   </properties>
  </tile>
  <tile id="89">
   <properties>
    <property name="collides" type="bool" value="true"/>
   </properties>
  </tile>
  <tile id="90">
   <properties>
    <property name="collides" type="bool" value="true"/>
   </properties>
  </tile>
  <tile id="91">
   <properties>
    <property name="collides" type="bool" value="false"/>
   </properties>
  </tile>
  <tile id="92">
   <properties>
    <property name="collides" type="bool" value="true"/>
   </properties>
  </tile>
  <tile id="93">
   <properties>
    <property name="collides" type="bool" value="true"/>
   </properties>
  </tile>
  <tile id="94">
   <properties>
    <property name="death" type="bool" value="true"/>
   </properties>
  </tile>
  <tile id="95">
   <properties>
    <property name="death" type="bool" value="true"/>
   </properties>
  </tile>
  <tile id="100">
   <properties>
    <property name="collides" type="bool" value="true"/>
   </properties>
  </tile>
  <tile id="101">
   <properties>
    <property name="collides" type="bool" value="true"/>
   </properties>
  </tile>
  <tile id="102">
   <properties>
    <property name="collides" type="bool" value="true"/>
   </properties>
  </tile>
  <tile id="103">
   <properties>
    <property name="collides" type="bool" value="true"/>
   </properties>
  </tile>
  <tile id="104">
   <properties>
    <property name="collides" type="bool" value="true"/>
   </properties>
  </tile>
  <tile id="105">
   <properties>
    <property name="collides" type="bool" value="true"/>
   </properties>
  </tile>
  <tile id="106">
   <properties>
    <property name="collides" type="bool" value="true"/>
   </properties>
  </tile>
  <tile id="107">
   <properties>
    <property name="collides" type="bool" value="false"/>
   </properties>
  </tile>
  <tile id="108">
   <properties>
    <property name="collides" type="bool" value="true"/>
   </properties>
  </tile>
  <tile id="109">
   <properties>
    <property name="collides" type="bool" value="true"/>
   </properties>
  </tile>
  <tile id="110">
   <properties>
    <property name="collides" type="bool" value="true"/>
   </properties>
  </tile>
  <tile id="111">
   <properties>
    <property name="collides" type="bool" value="true"/>
   </properties>
  </tile>
 </tileset>
 <tileset firstgid="113" name="base_tiles" tilewidth="18" tileheight="18" tilecount="180" columns="20">
  <image source="tilemap_packed.png" width="360" height="162"/>
  <tile id="0">
   <properties>
    <property name="collision" type="bool" value="false"/>
   </properties>
  </tile>
  <tile id="1">
   <properties>
    <property name="collision" type="bool" value="false"/>
   </properties>
  </tile>
  <tile id="2">
   <properties>
    <property name="collision" type="bool" value="false"/>
   </properties>
  </tile>
  <tile id="3">
   <properties>
    <property name="collision" type="bool" value="false"/>
   </properties>
  </tile>
  <tile id="4">
   <properties>
    <property name="collides" type="bool" value="true"/>
   </properties>
  </tile>
  <tile id="5">
   <properties>
    <property name="collides" type="bool" value="true"/>
   </properties>
  </tile>
  <tile id="20">
   <properties>
    <property name="collision" type="bool" value="false"/>
   </properties>
  </tile>
  <tile id="21">
   <properties>
    <property name="collision" type="bool" value="false"/>
   </properties>
  </tile>
  <tile id="22">
   <properties>
    <property name="collision" type="bool" value="false"/>
   </properties>
  </tile>
  <tile id="23">
   <properties>
    <property name="collision" type="bool" value="false"/>
   </properties>
  </tile>
  <tile id="24">
   <properties>
    <property name="collides" type="bool" value="true"/>
   </properties>
  </tile>
  <tile id="25">
   <properties>
    <property name="collides" type="bool" value="true"/>
   </properties>
  </tile>
  <tile id="40">
   <properties>
    <property name="collides" type="bool" value="true"/>
   </properties>
  </tile>
  <tile id="41">
   <properties>
    <property name="collides" type="bool" value="true"/>
   </properties>
  </tile>
  <tile id="42">
   <properties>
    <property name="collides" type="bool" value="true"/>
   </properties>
  </tile>
  <tile id="43">
   <properties>
    <property name="collides" type="bool" value="true"/>
   </properties>
  </tile>
  <tile id="47">
   <properties>
    <property name="collision" type="bool" value="true"/>
   </properties>
  </tile>
  <tile id="48">
   <properties>
    <property name="collision" type="bool" value="true"/>
   </properties>
  </tile>
  <tile id="49">
   <properties>
    <property name="collision" type="bool" value="true"/>
   </properties>
  </tile>
  <tile id="50">
   <properties>
    <property name="collision" type="bool" value="true"/>
   </properties>
  </tile>
  <tile id="60">
   <properties>
    <property name="collides" type="bool" value="true"/>
   </properties>
  </tile>
  <tile id="61">
   <properties>
    <property name="collides" type="bool" value="true"/>
   </properties>
  </tile>
  <tile id="62">
   <properties>
    <property name="collides" type="bool" value="true"/>
   </properties>
  </tile>
  <tile id="63">
   <properties>
    <property name="collides" type="bool" value="true"/>
   </properties>
  </tile>
  <tile id="80">
   <properties>
    <property name="collision" type="bool" value="false"/>
   </properties>
  </tile>
  <tile id="81">
   <properties>
    <property name="collision" type="bool" value="false"/>
   </properties>
  </tile>
  <tile id="82">
   <properties>
    <property name="collision" type="bool" value="false"/>
   </properties>
  </tile>
  <tile id="83">
   <properties>
    <property name="collision" type="bool" value="false"/>
   </properties>
  </tile>
  <tile id="93">
   <properties>
    <property name="collision" type="bool" value="false"/>
   </properties>
  </tile>
  <tile id="94">
   <properties>
    <property name="collision" type="bool" value="false"/>
   </properties>
  </tile>
  <tile id="95">
   <properties>
    <property name="collision" type="bool" value="false"/>
   </properties>
  </tile>
  <tile id="100">
   <properties>
    <property name="collision" type="bool" value="false"/>
   </properties>
  </tile>
  <tile id="101">
   <properties>
    <property name="collision" type="bool" value="false"/>
   </properties>
  </tile>
  <tile id="102">
   <properties>
    <property name="collision" type="bool" value="false"/>
   </properties>
  </tile>
  <tile id="103">
   <properties>
    <property name="collision" type="bool" value="false"/>
   </properties>
  </tile>
  <tile id="107">
   <properties>
    <property name="jumper" type="bool" value="true"/>
   </properties>
  </tile>
  <tile id="108">
   <properties>
    <property name="collides" type="bool" value="true"/>
   </properties>
  </tile>
  <tile id="113">
   <properties>
    <property name="collision" type="bool" value="false"/>
   </properties>
  </tile>
  <tile id="114">
   <properties>
    <property name="collision" type="bool" value="false"/>
   </properties>
  </tile>
  <tile id="115">
   <properties>
    <property name="collision" type="bool" value="false"/>
   </properties>
  </tile>
  <tile id="120">
   <properties>
    <property name="collides" type="bool" value="true"/>
   </properties>
  </tile>
  <tile id="121">
   <properties>
    <property name="collides" type="bool" value="true"/>
   </properties>
  </tile>
  <tile id="122">
   <properties>
    <property name="collides" type="bool" value="true"/>
   </properties>
  </tile>
  <tile id="123">
   <properties>
    <property name="collides" type="bool" value="true"/>
   </properties>
  </tile>
  <tile id="132">
   <properties>
    <property name="collision" type="bool" value="false"/>
   </properties>
  </tile>
  <tile id="133">
   <properties>
    <property name="collision" type="bool" value="false"/>
   </properties>
  </tile>
  <tile id="134">
   <properties>
    <property name="collision" type="bool" value="false"/>
   </properties>
  </tile>
  <tile id="135">
   <properties>
    <property name="collision" type="bool" value="false"/>
   </properties>
  </tile>
  <tile id="140">
   <properties>
    <property name="collides" type="bool" value="true"/>
   </properties>
  </tile>
  <tile id="141">
   <properties>
    <property name="collides" type="bool" value="true"/>
   </properties>
  </tile>
  <tile id="142">
   <properties>
    <property name="collides" type="bool" value="true"/>
   </properties>
  </tile>
  <tile id="143">
   <properties>
    <property name="collides" type="bool" value="true"/>
   </properties>
  </tile>
  <tile id="153">
   <properties>
    <property name="platform" type="bool" value="true"/>
   </properties>
  </tile>
  <tile id="154">
   <properties>
    <property name="platform" type="bool" value="true"/>
   </properties>
  </tile>
  <tile id="155">
   <properties>
    <property name="platform" type="bool" value="true"/>
   </properties>
  </tile>
  <tile id="156">
   <properties>
    <property name="platform" type="bool" value="true"/>
   </properties>
  </tile>
 </tileset>
 <layer id="2" name="ground" width="90" height="20">
  <data encoding="csv">
0,0,0,0,0,0,0,0,0,0,0,0,0,0,0,0,0,0,0,0,0,0,0,0,0,0,0,0,0,0,0,0,0,0,0,0,0,0,0,0,0,0,0,0,0,0,0,0,0,0,0,0,0,0,0,0,0,0,0,0,0,0,0,0,0,0,0,0,0,0,0,0,0,0,0,0,0,0,0,0,0,0,0,0,0,0,0,0,0,0,
0,0,0,0,0,0,0,0,0,0,0,0,0,0,0,0,0,0,0,0,0,0,0,0,0,0,0,0,0,0,0,0,0,0,0,0,0,0,0,0,0,0,0,0,0,0,0,0,0,0,0,0,0,0,0,0,0,0,0,0,0,0,0,0,0,0,0,0,0,0,0,0,0,0,0,0,0,0,0,0,0,0,0,0,0,0,0,0,0,0,
0,0,0,0,0,0,0,0,0,0,0,0,0,0,0,0,0,0,0,0,0,0,0,0,0,0,0,0,0,0,0,0,0,0,0,0,0,0,0,0,0,0,0,0,0,0,0,0,0,0,0,0,0,0,0,0,0,0,0,0,0,0,0,0,0,0,0,0,0,0,0,0,0,0,0,0,0,0,0,0,0,0,0,0,0,0,0,0,0,0,
0,0,0,0,0,0,0,0,0,0,0,0,0,0,0,0,0,0,0,0,0,0,0,0,0,0,0,0,0,0,0,0,0,0,0,0,0,0,0,0,0,0,0,0,0,0,0,0,0,0,0,0,0,0,0,0,0,0,0,0,0,0,0,0,0,0,0,0,0,0,0,0,0,0,0,0,0,266,267,267,267,267,267,268,0,0,0,0,0,0,
0,0,0,266,267,268,0,0,0,0,0,0,0,0,0,0,0,0,0,0,0,0,0,0,0,0,0,0,0,266,267,268,0,0,0,0,0,0,0,0,0,0,0,0,0,0,0,0,0,0,0,0,0,0,0,0,0,0,0,0,0,0,0,0,0,0,0,0,266,267,268,0,0,0,266,267,268,0,0,0,0,0,0,0,0,0,0,0,0,0,
0,0,0,0,0,0,0,0,0,0,0,0,0,0,0,0,0,0,0,0,0,0,0,0,0,0,0,0,0,0,0,0,0,0,0,0,0,0,0,0,0,0,0,0,0,0,0,0,0,0,0,0,0,0,0,0,0,0,0,0,0,266,267,268,0,0,0,0,0,0,0,0,0,0,0,0,0,0,0,0,0,0,0,0,0,0,0,0,0,0,
0,0,0,0,0,0,0,0,0,0,0,0,0,0,0,0,0,0,0,0,0,0,0,0,0,0,0,0,0,0,0,0,0,0,0,0,0,0,0,0,0,0,0,0,0,0,0,0,0,0,0,0,0,0,0,0,0,0,0,0,0,0,0,0,0,0,0,0,0,0,0,0,0,0,0,0,0,0,0,0,0,0,0,0,0,0,0,0,0,0,
0,0,0,0,0,0,0,0,0,0,0,0,0,0,0,0,0,0,0,0,0,0,0,0,0,0,0,0,0,0,0,0,0,0,0,0,0,0,0,0,0,0,266,267,268,0,0,0,0,0,0,0,0,0,0,0,0,0,0,0,0,0,0,0,0,0,0,0,0,0,0,0,0,0,0,0,0,0,0,0,0,0,0,0,0,0,0,13,0,0,
0,0,0,0,0,0,0,0,0,0,266,267,268,0,0,0,0,0,0,0,0,0,0,0,0,0,0,0,0,0,0,0,0,0,0,0,0,0,0,0,0,0,0,0,0,0,0,0,0,0,0,0,0,0,0,0,0,0,0,0,0,0,0,0,0,0,0,0,0,0,0,0,0,0,0,0,0,0,0,269,0,0,0,0,0,0,0,29,0,0,
0,0,0,0,0,0,0,0,0,0,0,0,0,0,0,0,0,0,0,0,0,0,266,267,268,0,0,0,0,0,0,0,0,0,221,0,0,0,0,0,0,0,0,0,0,0,0,0,0,0,0,0,0,0,0,0,0,0,0,220,0,0,0,0,0,0,0,0,0,0,0,0,0,0,0,0,0,0,0,0,0,0,0,18,19,19,19,19,19,19,
0,0,0,0,0,0,0,0,0,0,0,0,0,0,0,0,0,0,0,0,0,0,0,0,0,0,0,0,0,0,0,5,6,6,39,6,6,7,0,0,0,0,0,0,0,0,0,0,266,267,268,0,0,0,0,0,0,88,89,91,0,0,0,0,0,0,0,0,0,0,0,0,0,0,0,0,0,0,0,269,0,0,77,34,35,35,35,35,35,35,
0,0,0,0,0,0,0,0,0,0,0,0,0,0,0,0,37,0,0,0,0,0,0,0,0,0,0,0,0,0,0,9,0,0,54,0,0,0,0,0,0,0,0,0,0,0,0,0,0,0,0,0,0,0,0,0,0,0,0,0,0,0,0,0,0,0,0,0,0,0,0,0,0,0,0,0,0,0,0,0,0,0,76,34,35,35,35,35,35,35,
0,0,0,0,0,0,0,0,0,0,0,0,0,0,0,5,39,6,6,7,0,0,0,0,0,0,0,0,0,0,0,41,0,0,54,0,0,0,0,0,0,0,0,0,0,0,0,0,0,0,0,0,0,0,0,0,0,0,0,0,0,0,0,0,0,0,0,0,0,0,0,0,0,0,0,0,0,0,0,269,0,0,76,34,35,35,35,35,35,35,
0,0,0,0,43,0,0,0,0,0,0,0,0,0,66,0,53,0,8,0,0,0,0,0,0,0,64,63,64,0,0,0,0,0,54,0,0,0,0,0,0,0,0,0,0,0,0,0,0,0,0,0,0,18,19,19,19,19,19,19,19,19,20,0,0,0,0,0,0,0,0,0,88,89,89,91,0,0,0,0,0,0,76,34,35,35,35,35,35,35,
0,0,0,0,59,0,0,0,0,0,0,0,0,0,88,89,53,0,40,0,0,0,0,0,0,0,0,0,0,0,0,0,0,0,54,0,0,0,0,0,0,0,0,0,64,63,64,0,0,0,0,0,0,34,35,35,35,35,35,35,35,35,137,20,0,0,0,0,0,0,0,0,0,0,0,0,0,0,0,0,0,0,76,34,35,35,35,35,35,35,
0,0,0,0,59,0,0,0,0,0,0,0,0,0,0,83,69,0,0,0,0,0,0,0,58,0,0,0,0,0,0,0,0,0,70,0,0,0,0,0,0,0,0,0,0,0,0,0,0,0,0,0,0,34,35,35,35,35,35,35,35,35,35,137,20,0,0,0,0,0,0,0,0,0,0,0,0,0,0,0,0,0,76,34,35,35,35,35,35,35,
0,0,10,0,75,0,240,0,0,0,0,0,0,240,0,101,86,103,240,0,0,0,0,0,18,19,19,19,19,19,19,19,19,19,19,19,19,19,19,20,0,0,0,0,0,0,0,0,0,0,0,77,110,34,35,35,35,35,35,35,35,35,35,35,137,19,19,20,0,0,0,0,0,0,0,0,0,0,0,0,0,0,80,34,35,35,35,35,35,35,
175,175,175,175,175,175,175,175,175,175,175,175,175,175,175,175,175,175,175,176,0,0,0,0,34,35,35,35,35,35,35,35,35,35,35,35,35,35,35,36,0,0,0,0,0,0,0,0,0,0,0,80,0,34,35,35,35,35,35,35,35,35,35,35,35,35,35,36,30,30,30,30,30,30,30,30,30,30,30,30,30,30,96,34,35,35,35,35,35,35,
35,35,35,35,35,35,35,35,35,35,35,35,35,35,35,35,35,35,35,36,30,30,30,30,34,35,35,35,35,35,35,35,35,35,35,35,35,35,35,36,30,30,30,30,30,30,30,30,30,30,30,96,30,34,35,35,35,35,35,35,35,35,35,35,35,35,35,36,46,46,46,46,46,46,46,46,46,46,46,46,46,46,46,34,35,35,35,35,35,35,
35,35,35,35,35,35,35,35,35,35,35,35,35,35,35,35,35,35,35,36,46,46,46,46,34,35,35,35,35,35,35,35,35,35,35,35,35,35,35,36,46,46,46,46,46,46,46,46,46,46,46,46,46,34,35,35,35,35,35,35,35,35,35,35,35,35,35,36,46,46,46,46,46,46,46,46,46,46,46,46,46,46,46,34,35,35,35,35,35,35
</data>
 </layer>
 <objectgroup id="3" name="collectables">
  <object id="1" name="coin" gid="264" x="198" y="144" width="18" height="18"/>
  <object id="2" name="coin" gid="264" x="162.273" y="305.909" width="18" height="18"/>
  <object id="4" name="coin" gid="264" x="180" y="306" width="18" height="18"/>
  <object id="5" name="coin" gid="264" x="198" y="306" width="18" height="18"/>
  <object id="6" name="coin" gid="264" x="342" y="216" width="18" height="18"/>
  <object id="9" name="coin" gid="264" x="414" y="162" width="18" height="18"/>
  <object id="10" name="coin" gid="264" x="468.106" y="234.015" width="18" height="18"/>
  <object id="11" name="coin" gid="264" x="485.833" y="234.106" width="18" height="18"/>
  <object id="12" name="coin" gid="264" x="503.833" y="234.106" width="18" height="18"/>
  <object id="13" name="coin" gid="264" x="791.949" y="251.892" width="18" height="18"/>
  <object id="14" name="coin" gid="264" x="809.676" y="251.983" width="18" height="18"/>
  <object id="15" name="coin" gid="264" x="827.676" y="251.983" width="18" height="18"/>
  <object id="16" name="coin" gid="264" x="1422.14" y="53.9545" width="18" height="18"/>
  <object id="17" name="coin" gid="264" x="1439.86" y="54.0455" width="18" height="18"/>
  <object id="18" name="coin" gid="264" x="1457.86" y="54.0455" width="18" height="18"/>
  <object id="20" name="coin" gid="264" x="1313.86" y="234.046" width="18" height="18"/>
  <object id="21" name="coin" gid="264" x="1331.86" y="234.046" width="18" height="18"/>
  <object id="22" name="coin" gid="264" x="541" y="73.6667" width="18" height="18"/>
  <object id="23" name="coin" gid="264" x="396.333" y="271.667" width="18" height="18"/>
  <object id="24" name="coin" gid="264" x="559" y="289" width="18" height="18"/>
  <object id="25" name="coin" gid="264" x="575.667" y="179" width="18" height="18"/>
  <object id="26" name="coin" gid="264" x="649" y="181.667" width="18" height="18"/>
  <object id="27" name="coin" gid="264" x="739" y="269.667" width="18" height="18"/>
  <object id="28" name="coin" gid="264" x="774.333" y="125" width="18" height="18"/>
  <object id="29" name="coin" gid="264" x="881.667" y="179.667" width="18" height="18"/>
  <object id="30" name="coin" gid="264" x="899.667" y="234.333" width="18" height="18"/>
  <object id="31" name="coin" gid="264" x="935.667" y="287.667" width="18" height="18"/>
  <object id="32" name="coin" gid="264" x="1008.33" y="234.333" width="18" height="18"/>
  <object id="33" name="coin" gid="264" x="1026.33" y="180.333" width="18" height="18"/>
  <object id="34" name="coin" gid="264" x="1115.67" y="89.6667" width="18" height="18"/>
  <object id="35" name="coin" gid="264" x="1117" y="233" width="18" height="18"/>
  <object id="36" name="coin" gid="264" x="1206.33" y="286.333" width="18" height="18"/>
  <object id="37" name="coin" gid="264" x="1349.67" y="71" width="18" height="18"/>
  <object id="38" name="coin" gid="264" x="1420.33" y="143.667" width="18" height="18"/>
  <object id="40" name="key" gid="140" x="36" y="287.25" width="18" height="18"/>
 </objectgroup>
</map>
